assets/Mens room/Flat/mens_room_flat.svg

<svg width="32" height="32" viewBox="0 0 32 32" fill="none" xmlns="http://www.w3.org/2000/svg">
<path d="M2 6C2 3.79086 3.79086 2 6 2H26C28.2091 2 30 3.79086 30 6V26C30 28.2091 28.2091 30 26 30H6C3.79086 30 2 28.2091 2 26V6Z" fill="#00A6ED"/>
<path d="M18.4412 7.5C18.4412 8.88071 17.3219 10 15.9412 10C14.5605 10 13.4412 8.88071 13.4412 7.5C13.4412 6.11929 14.5605 5 15.9412 5C17.3219 5 18.4412 6.11929 18.4412 7.5Z" fill="white"/>
<path d="M19.2725 10.9375C20.5025 10.9375 21.4994 11.935 21.5 13.1656V18.3219C21.5 18.86 21.0862 19.3231 20.5481 19.3487C19.9737 19.3756 19.5 18.9181 19.5 18.35V13.9748C19.5 13.6992 19.2762 13.476 19.0012 13.476C18.7256 13.476 18.5025 13.6998 18.5025 13.9748V26C18.5025 26.5681 18.0288 27.0256 17.4544 26.9988C16.9163 26.9738 16.5025 26.5106 16.5025 25.9719V20.1481C16.5025 19.8719 16.2787 19.6481 16.0025 19.6481C15.7262 19.6481 15.5025 19.8719 15.5025 20.1481V26C15.5025 26.5681 15.0288 27.0256 14.4544 26.9988C13.9163 26.9738 13.5025 26.5106 13.5025 25.9719V13.9773C13.5025 13.7004 13.2781 13.476 13.0013 13.476C12.7244 13.476 12.5 13.7004 12.5 13.9773V18.3494C12.5 18.9175 12.0262 19.375 11.4519 19.3481C10.9137 19.3231 10.5 18.86 10.5 18.3213V13.165C10.5 11.935 11.4975 10.9375 12.7275 10.9375H19.2725Z" fill="white"/>
</svg>

<svg xmlns="http://www.w3.org/2000/svg" width="32" height="32" fill="none"><path fill="#00A6ED" d="M2 6a4 4 0 0 1 4-4h20a4 4 0 0 1 4 4v20a4 4 0 0 1-4 4H6a4 4 0 0 1-4-4V6Z"/><path fill="#fff" d="M18.441 7.5a2.5 2.5 0 1 1-5 0 2.5 2.5 0 0 1 5 0ZM19.273 10.938c1.23 0 2.226.997 2.227 2.228v5.156c0 .538-.414 1.001-.952 1.027a1 1 0 0 1-1.048-.999v-4.375a.499.499 0 0 0-.997 0V26a1 1 0 0 1-1.049.999c-.538-.025-.951-.488-.951-1.027v-5.824a.5.5 0 1 0-1 0V26a1 1 0 0 1-1.049.999c-.538-.025-.952-.488-.952-1.027V13.977a.501.501 0 1 0-1.002 0v4.372a1 1 0 0 1-1.048 1c-.538-.026-.952-.489-.952-1.028v-5.156c0-1.23.998-2.227 2.227-2.227h6.546Z"/></svg>
